X: 685
T:Miss Sarah Drummond of Perth
S:Book, Malcolm MacDonald's Collections (facsimile, 2002)
Z:https://nigelgatherer.com/
M:4/4
L:1/8
K:Am
a | A<A e>d B<d e2 | d<g B<g d<g B<G | A<A e>d B<d e<g | a>egB A2 A :|
g | g<g e<a c<a e2 | g<g d<g Bg d2 | g<g e<a c<a e<g | a<e g<B A2 Ag |
g<g e<a c<a e2 | g<g d<g Bg d2 | g<g e<a g<b e<g | a<e g<B A2 A |]

